static/img/icon/facebook-dark-icon.svg

<svg width="14" height="16" viewBox="0 0 14 16" fill="none" xmlns="http://www.w3.org/2000/svg">
<g clip-path="url(#clip0)">
<path d="M12.5 1H1.5C1.10218 1 0.720644 1.15804 0.43934 1.43934C0.158035 1.72064 0 2.10218 0 2.5L0 13.5C0 13.8978 0.158035 14.2794 0.43934 14.5607C0.720644 14.842 1.10218 15 1.5 15H5.78906V10.2403H3.82031V8H5.78906V6.2925C5.78906 4.35031 6.94531 3.2775 8.71625 3.2775C9.56438 3.2775 10.4513 3.42875 10.4513 3.42875V5.335H9.47406C8.51125 5.335 8.21094 5.9325 8.21094 6.54531V8H10.3603L10.0166 10.2403H8.21094V15H12.5C12.8978 15 13.2794 14.842 13.5607 14.5607C13.842 14.2794 14 13.8978 14 13.5V2.5C14 2.10218 13.842 1.72064 13.5607 1.43934C13.2794 1.15804 12.8978 1 12.5 1V1Z" fill="white"/>
</g>
<defs>
<clipPath id="clip0">
<rect width="14" height="16" fill="white"/>
</clipPath>
</defs>
</svg>

<svg xmlns="http://www.w3.org/2000/svg" width="14" height="16" fill="none" viewBox="0 0 14 16"><g clip-path="url(#a)"><path fill="#fff" d="M12.5 1h-11A1.5 1.5 0 0 0 0 2.5v11A1.5 1.5 0 0 0 1.5 15h4.29v-4.76H3.82V8h1.97V6.293c0-1.943 1.155-3.016 2.926-3.016.848 0 1.735.152 1.735.152v1.906h-.977c-.963 0-1.263.598-1.263 1.21V8h2.15l-.344 2.24H8.21V15H12.5a1.5 1.5 0 0 0 1.5-1.5v-11A1.5 1.5 0 0 0 12.5 1"/></g><defs><clipPath id="a"><path fill="#fff" d="M0 0h14v16H0z"/></clipPath></defs></svg>
